svgs/light/mailbox-flag-up.svg

<svg xmlns="http://www.w3.org/2000/svg" viewBox="0 0 576 512"><!--! Font Awesome Pro 6.6.0 by @fontawesome - https://fontawesome.com License - https://fontawesome.com/license (Commercial License) Copyright 2024 Fonticons, Inc. --><path d="M352 208l0-96 0-56c0-13.3 10.7-24 24-24l80 0c13.3 0 24 10.7 24 24l0 48c0 13.3-10.7 24-24 24l-72 0 0 80c0 8.8-7.2 16-16 16s-16-7.2-16-16zM448 96l0-32-64 0 0 32 64 0zM320 64l0 32-85.5 0c32.6 26.4 53.5 66.8 53.5 112l0 176c0 11.7-3.1 22.6-8.6 32L512 416c17.7 0 32-14.3 32-32l0-176c0-32.7-14-62-36.3-82.5c2.7-6.6 4.3-13.9 4.3-21.5l0-15.8c38.6 25.8 64 69.8 64 119.8l0 176c0 35.3-28.7 64-64 64l-288 0L64 448c-35.3 0-64-28.7-64-64L0 208C0 128.5 64.5 64 144 64l176 0zM224 416c17.7 0 32-14.3 32-32l0-176c0-61.9-50.1-112-112-112S32 146.1 32 208l0 176c0 17.7 14.3 32 32 32l160 0zM96 208c0-8.8 7.2-16 16-16l64 0c8.8 0 16 7.2 16 16s-7.2 16-16 16l-64 0c-8.8 0-16-7.2-16-16z"/></svg>

<svg xmlns="http://www.w3.org/2000/svg" viewBox="0 0 576 512"><!--! Font Awesome Pro 6.5.2 by @fontawesome - https://fontawesome.com License - https://fontawesome.com/license (Commercial License) Copyright 2024 Fonticons, Inc. --><path d="M352 208V112 56c0-13.3 10.7-24 24-24h80c13.3 0 24 10.7 24 24v48c0 13.3-10.7 24-24 24l-72 0v80c0 8.8-7.2 16-16 16s-16-7.2-16-16zM448 96V64l-64 0V96l64 0zM320 64V96H234.5c32.6 26.4 53.5 66.8 53.5 112V384c0 11.7-3.1 22.6-8.6 32H512c17.7 0 32-14.3 32-32V208c0-32.7-14-62-36.3-82.5c2.7-6.6 4.3-13.9 4.3-21.5V88.2c38.6 25.8 64 69.8 64 119.8V384c0 35.3-28.7 64-64 64H224 64c-35.3 0-64-28.7-64-64V208C0 128.5 64.5 64 144 64H320zM224 416c17.7 0 32-14.3 32-32V208c0-61.9-50.1-112-112-112S32 146.1 32 208V384c0 17.7 14.3 32 32 32H224zM96 208c0-8.8 7.2-16 16-16h64c8.8 0 16 7.2 16 16s-7.2 16-16 16H112c-8.8 0-16-7.2-16-16z"/></svg>
